img/svg/16/os/lindowsos.svg

<svg xmlns="http://www.w3.org/2000/svg" viewBox="0 0 16 16" enable-background="new 0 0 16 16"><path d="M5.545 6.23l1.202-5.23h3.413l-1.203 5.23h-3.412zm2.007 6.115l.592-2.575h-3.413l-1.202 5.23h9.977l.61-2.655h-6.564zm-1.046-6.115h-3.701l-.805 3.54h3.701l.805-3.54z" fill="#ccc"/></svg>

<svg xmlns="http://www.w3.org/2000/svg" viewBox="0 0 16 16"><path fill="#ccc" d="M5.545 6.23 6.747 1h3.413L8.957 6.23H5.545zm2.007 6.115.592-2.575H4.731L3.529 15h9.977l.61-2.655H7.552zM6.506 6.23H2.805L2 9.77h3.701l.805-3.54z"/></svg>
